X:1151
T:Cliffs of Moher set No 1
O:england
R:double jig
M:6/8
L:1/8
Q:150
K:G
E|A2B cBA|eAB cBA|G2G EGG|DGG EFG|
A2B cBA|e2d efg|age dBG|1 AcB A2:|2 AcB A3|
|:a2a age|def g2g|gag gfe|dBA G2G|
EGG|DGG EFG|A2c Bed|BAG BAG|A3:|
ABA g2f|ABA g2d|GAG edB|GAG edB|
ABA g2f|ABA efg|age dBG|AcB A3:|


